Dominus_Dark_Funeral/22/apps/atom.svg

<svg xmlns="http://www.w3.org/2000/svg" width="24" height="24"><defs><linearGradient id="a"><stop offset="0"/><stop offset="1" stop-color="#020000" stop-opacity="0"/></linearGradient></defs><path d="M7.21 1.87c-.14.02-.27.07-.41.12a2.5 2.5 0 0 0-1.6 1.67c-.25.77-.3 1.68-.19 2.7.07.56.22 1.18.38 1.81l-.15.04c-2.4.69-4 1.62-4.48 3.07-.24.73-.06 1.57.42 2.2a5.65 5.65 0 0 0 2.2 1.64l.65-1.45a4.28 4.28 0 0 1-1.6-1.13c-.24-.33-.27-.48-.19-.73.17-.5 1.28-1.46 3.46-2.08l.15-.04c.26.75.54 1.52.9 2.31a22.15 22.15 0 0 0-1.47 4.3A9.73 9.73 0 0 0 5 19.4c.1.88.39 1.61.95 2.13a2.5 2.5 0 0 0 2.16.57c.8-.16 1.62-.6 2.5-1.26l-.94-1.25c-.76.57-1.41.87-1.86.95-.44.09-.66.01-.83-.15-.18-.16-.35-.54-.42-1.18a8.2 8.2 0 0 1 .23-2.58c.2-.87.53-1.82.9-2.77 1.38 2.48 3 4.6 4.6 6.07.83.78 1.66 1.4 2.46 1.79.81.38 1.65.54 2.43.3a2.5 2.5 0 0 0 1.6-1.67c.25-.77.3-1.68.19-2.7a21.06 21.06 0 0 0-2.5-7.16l-1.41.76a19.73 19.73 0 0 1 2.31 6.6c.1.87.07 1.57-.07 2-.15.45-.32.58-.57.65-.25.08-.7.06-1.3-.22-.59-.29-1.3-.79-2.04-1.48-1.5-1.4-3.14-3.5-4.48-6v-.04c-.14-.25-.25-.5-.38-.76.52-1.03 1.11-2.03 1.75-3 3.59-.2 7.41.29 9.67 1.34.7.32 1.2.68 1.48.98.28.3.31.53.3.72 0 .2-.1.41-.41.72a5.1 5.1 0 0 1-1.56.99l.65 1.44a6.56 6.56 0 0 0 2.05-1.29c.5-.5.84-1.15.87-1.82.03-.67-.28-1.3-.76-1.82a6.11 6.11 0 0 0-1.97-1.37c-2.37-1.1-5.74-1.62-9.1-1.55a16.14 16.14 0 0 1 2.8-2.92l.07-.04c.66-.48 1.21-.76 1.64-.87.43-.12.7-.07.87.03.17.1.34.32.45.76.12.45.15 1.13.04 1.98l1.56.19c.12-1 .11-1.86-.08-2.58a2.72 2.72 0 0 0-1.17-1.71 2.66 2.66 0 0 0-2.05-.2c-.72.2-1.49.6-2.28 1.18A19.47 19.47 0 0 0 9.38 7.5c-.83.08-1.65.19-2.43.34-.16-.6-.28-1.16-.34-1.67-.1-.87-.07-1.57.07-2 .15-.45.32-.58.57-.65.35-.11 1.18.04 2.24.8L10.4 3c-1.1-.78-2.18-1.26-3.19-1.14zm1.03 7.36c-.18.3-.36.6-.53.92l-.3-.8c.26-.05.55-.08.83-.12zm4.21 1.48a1.82 1.82 0 1 0 0 3.65 1.82 1.82 0 0 0 0-3.65z" style="line-height:normal;-inkscape-font-specification:Sans;text-indent:0;text-align:start;text-decoration-line:none;text-transform:none;marker:none" color="#000" font-weight="400" font-family="Sans" overflow="visible" fill="#e6e6e6" fill-opacity=".98"/></svg>

<?xml version="1.0" encoding="UTF-8" standalone="no"?>
<svg
   xmlns:dc="http://purl.org/dc/elements/1.1/"
   xmlns:cc="http://creativecommons.org/ns#"
   xmlns:rdf="http://www.w3.org/1999/02/22-rdf-syntax-ns#"
   xmlns:svg="http://www.w3.org/2000/svg"
   xmlns="http://www.w3.org/2000/svg"
   xmlns:sodipodi="http://sodipodi.sourceforge.net/DTD/sodipodi-0.dtd"
   xmlns:inkscape="http://www.inkscape.org/namespaces/inkscape"
   width="24"
   height="24"
   version="1.1"
   id="svg11"
   sodipodi:docname="atom.svg"
   inkscape:version="0.92.4 (5da689c313, 2019-01-14)">
  <metadata
     id="metadata15">
    <rdf:RDF>
      <cc:Work
         rdf:about="">
        <dc:format>image/svg+xml</dc:format>
        <dc:type
           rdf:resource="http://purl.org/dc/dcmitype/StillImage" />
        <dc:title></dc:title>
      </cc:Work>
    </rdf:RDF>
  </metadata>
  <sodipodi:namedview
     pagecolor="#ffffff"
     bordercolor="#666666"
     borderopacity="1"
     objecttolerance="10"
     gridtolerance="10"
     guidetolerance="10"
     inkscape:pageopacity="0"
     inkscape:pageshadow="2"
     inkscape:window-width="1142"
     inkscape:window-height="480"
     id="namedview13"
     showgrid="false"
     inkscape:zoom="9.8333333"
     inkscape:cx="1.2711864"
     inkscape:cy="12"
     inkscape:window-x="0"
     inkscape:window-y="25"
     inkscape:window-maximized="0"
     inkscape:current-layer="svg11" />
  <defs
     id="defs7">
    <linearGradient
       id="a">
      <stop
         offset="0"
         id="stop2" />
      <stop
         offset="1"
         stop-color="#020000"
         stop-opacity="0"
         id="stop4" />
    </linearGradient>
  </defs>
  <path
     d="M 7.21,1.87 C 7.07,1.89 6.94,1.94 6.8,1.99 A 2.5,2.5 0 0 0 5.2,3.66 C 4.95,4.43 4.9,5.34 5.01,6.36 5.08,6.92 5.23,7.54 5.39,8.17 L 5.24,8.21 c -2.4,0.69 -4,1.62 -4.48,3.07 -0.24,0.73 -0.06,1.57 0.42,2.2 a 5.65,5.65 0 0 0 2.2,1.64 L 4.03,13.67 A 4.28,4.28 0 0 1 2.43,12.54 C 2.19,12.21 2.16,12.06 2.24,11.81 2.41,11.31 3.52,10.35 5.7,9.73 L 5.85,9.69 c 0.26,0.75 0.54,1.52 0.9,2.31 A 22.15,22.15 0 0 0 5.28,16.3 9.73,9.73 0 0 0 5,19.4 c 0.1,0.88 0.39,1.61 0.95,2.13 a 2.5,2.5 0 0 0 2.16,0.57 c 0.8,-0.16 1.62,-0.6 2.5,-1.26 L 9.67,19.59 C 8.91,20.16 8.26,20.46 7.81,20.54 7.37,20.63 7.15,20.55 6.98,20.39 6.8,20.23 6.63,19.85 6.56,19.21 a 8.2,8.2 0 0 1 0.23,-2.58 c 0.2,-0.87 0.53,-1.82 0.9,-2.77 1.38,2.48 3,4.6 4.6,6.07 0.83,0.78 1.66,1.4 2.46,1.79 0.81,0.38 1.65,0.54 2.43,0.3 a 2.5,2.5 0 0 0 1.6,-1.67 c 0.25,-0.77 0.3,-1.68 0.19,-2.7 a 21.06,21.06 0 0 0 -2.5,-7.16 l -1.41,0.76 a 19.73,19.73 0 0 1 2.31,6.6 c 0.1,0.87 0.07,1.57 -0.07,2 -0.15,0.45 -0.32,0.58 -0.57,0.65 -0.25,0.08 -0.7,0.06 -1.3,-0.22 -0.59,-0.29 -1.3,-0.79 -2.04,-1.48 -1.5,-1.4 -3.14,-3.5 -4.48,-6 V 12.76 C 8.77,12.51 8.66,12.26 8.53,12 9.05,10.97 9.64,9.97 10.28,9 c 3.59,-0.2 7.41,0.29 9.67,1.34 0.7,0.32 1.2,0.68 1.48,0.98 0.28,0.3 0.31,0.53 0.3,0.72 0,0.2 -0.1,0.41 -0.41,0.72 a 5.1,5.1 0 0 1 -1.56,0.99 l 0.65,1.44 a 6.56,6.56 0 0 0 2.05,-1.29 c 0.5,-0.5 0.84,-1.15 0.87,-1.82 0.03,-0.67 -0.28,-1.3 -0.76,-1.82 A 6.11,6.11 0 0 0 20.6,8.89 C 18.23,7.79 14.86,7.27 11.5,7.34 a 16.14,16.14 0 0 1 2.8,-2.92 l 0.07,-0.04 c 0.66,-0.48 1.21,-0.76 1.64,-0.87 0.43,-0.12 0.7,-0.07 0.87,0.03 0.17,0.1 0.34,0.32 0.45,0.76 0.12,0.45 0.15,1.13 0.04,1.98 l 1.56,0.19 c 0.12,-1 0.11,-1.86 -0.08,-2.58 A 2.72,2.72 0 0 0 17.68,2.18 2.66,2.66 0 0 0 15.63,1.98 c -0.72,0.2 -1.49,0.6 -2.28,1.18 A 19.47,19.47 0 0 0 9.38,7.5 C 8.55,7.58 7.73,7.69 6.95,7.84 6.79,7.24 6.67,6.68 6.61,6.17 6.51,5.3 6.54,4.6 6.68,4.17 6.83,3.72 7,3.59 7.25,3.52 7.6,3.41 8.43,3.56 9.49,4.32 L 10.4,3 C 9.3,2.22 8.22,1.74 7.21,1.86 Z M 8.24,9.23 C 8.06,9.53 7.88,9.83 7.71,10.15 L 7.41,9.35 C 7.67,9.3 7.96,9.27 8.24,9.23 Z m 4.21,1.48 a 1.825,1.825 0 1 0 0,3.65 1.825,1.825 0 0 0 0,-3.65 z"
     style="color:#000000;font-weight:400;line-height:normal;font-family:Sans;-inkscape-font-specification:Sans;text-indent:0;text-align:start;text-decoration:none;text-decoration-line:none;text-transform:none;overflow:visible;fill:#e6e6e6;fill-opacity:0.98000004;marker:none"
     font-weight="400"
     overflow="visible"
     id="path9"
     inkscape:connector-curvature="0" />
</svg>
